packages/tokens/icons/saml/size32Px.svg

<svg viewBox="0 0 32 32" fill="none" xmlns="http://www.w3.org/2000/svg" width="1em" height="1em"><path d="M28 23.25H28.5C28.5 23.1135 28.4442 22.9829 28.3455 22.8885L28 23.25ZM28 23.25L28.5 23.25V23.2502V23.2504V23.2506V23.251V23.2514V23.2519V23.2525V23.2532V23.2539V23.2547V23.2556V23.2566V23.2576V23.2588V23.2599V23.2612V23.2626V23.264V23.2655V23.267V23.2687V23.2704V23.2722V23.274V23.2759V23.2779V23.28V23.2821V23.2843V23.2866V23.289V23.2914V23.2939V23.2964V23.2991V23.3018V23.3045V23.3074V23.3103V23.3132V23.3163V23.3194V23.3225V23.3258V23.3291V23.3324V23.3359V23.3394V23.3429V23.3466V23.3503V23.354V23.3578V23.3617V23.3656V23.3697V23.3737V23.3779V23.382V23.3863V23.3906V23.395V23.3994V23.4039V23.4085V23.4131V23.4178V23.4225V23.4273V23.4322V23.4371V23.442V23.4471V23.4521V23.4573V23.4625V23.4677V23.473V23.4784V23.4838V23.4893V23.4948V23.5004V23.5061V23.5118V23.5175V23.5233V23.5292V23.5351V23.541V23.547V23.5531V23.5592V23.5654V23.5716V23.5779V23.5842V23.5906V23.597V23.6035V23.61V23.6165V23.6232V23.6298V23.6365V23.6433V23.6501V23.657V23.6639V23.6708V23.6778V23.6849V23.6919V23.6991V23.7063V23.7135V23.7207V23.7281V23.7354V23.7428V23.7502V23.7577V23.7653V23.7728V23.7804V23.7881V23.7958V23.8035V23.8113V23.8191V23.827V23.8349V23.8428V23.8508V23.8588V23.8669V23.875V23.8831V23.8913V23.8995V23.9077V23.916V23.9244V23.9327V23.9411V23.9495V23.958V23.9665V23.975V23.9836V23.9922V24.0009V24.0095V24.0182V24.027V24.0357V24.0446V24.0534V24.0623V24.0712V24.0801V24.0891V24.0981V24.1071V24.1161V24.1252V24.1343V24.1435V24.1527V24.1619V24.1711V24.1804V24.1896V24.199V24.2083V24.2177V24.2271V24.2365V24.2459V24.2554V24.2649V24.2744V24.284V24.2936V24.3032V24.3128V24.3224V24.3321V24.3418V24.3515V24.3613V24.371V24.3808V24.3906V24.4004V24.4103V24.4202V24.43V24.44V24.4499V24.4598V24.4698V24.4798V24.4898V24.4998V24.5099V24.5199V24.53V24.5401V24.5502V24.5603V24.5705V24.5806V24.5908V24.601V24.6112V24.6214V24.6317V24.6419V24.6522V24.6625V24.6728V24.6831V24.6934V24.7037V24.7141V24.7244V24.7348V24.7452V24.7556V24.766V24.7764V24.7868V24.7972V24.8076V24.8181V24.8286V24.839V24.8495V24.86V24.8705V24.881V24.8915V24.902V24.9125V24.923V24.9335V24.9441V24.9546V24.9652V24.9757V24.9863V24.9968V25.0074V25.018V25.0285V25.0391V25.0497V25.0603V25.0708V25.0814V25.092V25.1026V25.1132V25.1238V25.1343V25.1449V25.1555V25.1661V25.1767V25.1873V25.1979V25.2084V25.219V25.2296V25.2402V25.2507V25.2613V25.2719V25.2824V25.293V25.3035V25.3141V25.3246V25.3351V25.3457V25.3562V25.3667V25.3772V25.3877V25.3982V25.4087V25.4192V25.4297V25.4401V25.4506V25.461V25.4715V25.4819V25.4923V25.5027V25.5131V25.5235V25.5339V25.5443V25.5546V25.565V25.5753V25.5856V25.5959V25.6062V25.6165V25.6268V25.637V25.6472V25.6575V25.6677V25.6779V25.688V25.6982V25.7083V25.7185V25.7286V25.7387V25.7488V25.7588V25.7689V25.7789V25.7889V25.7989V25.8089V25.8188V25.8287V25.8386V25.8485V25.8584V25.8682V25.8781V25.8879V25.8977V25.9074V25.9172V25.9269V25.9366V25.9462V25.9559V25.9655V25.9751V25.9847V25.9942V26.0038V26.0133V26.0227V26.0322V26.0416V26.051V26.0604V26.0697V26.079V26.0883V26.0976V26.1068V26.116V26.1252V26.1343V26.1435V26.1525V26.1616V26.1706V26.1796V26.1886V26.1975V26.2064V26.2153V26.2241V26.2329V26.2417V26.2505V26.2592V26.2678V26.2765V26.2851V26.2936V26.3022V26.3107V26.3191V26.3276V26.336V26.3443V26.3527V26.3609V26.3692V26.3774V26.3856V26.3937V26.4018V26.4099V26.4179V26.4258V26.4338V26.4417V26.4495V26.4574V26.4651V26.4729V26.4806V26.4882V26.4958V26.5034V26.5109V26.5184V26.5259V26.5333V26.5406V26.5479V26.5552V26.5624V26.5696V26.5767V26.5838V26.5909V26.5979V26.6048V26.6117V26.6186V26.6254V26.6321V26.6389V26.6455V26.6521V26.6587V26.6652V26.6717V26.6781V26.6845V26.6908V26.6971V26.7033V26.7095V26.7156V26.7216V26.7276V26.7336V26.7395V26.7454V26.7512V26.7569V26.7626V26.7683V26.7738V26.7794V26.7848V26.7903V26.7956V26.8009V26.8062V26.8114V26.8165V26.8216V26.8266V26.8316V26.8365V26.8414V26.8462V26.8509V26.8556V26.8602V26.8647V26.8692V26.8737V26.8781V26.8824V26.8866V26.8908V26.895V26.899V26.903V26.907V26.9108V26.9147V26.9184V26.9221V26.9257V26.9293V26.9328V26.9362V26.9396V26.9429V26.9461V26.9493V26.9524V26.9554V26.9584V26.9613V26.9641V26.9669V26.9696V26.9722V26.9748V26.9773V26.9797V26.982V26.9843V26.9865V26.9887V26.9907V26.9927V26.9947V26.9965V26.9983V27C28.5 27.4126 28.2987 27.7834 28.0411 28.0411C27.7834 28.2987 27.4126 28.5 27 28.5H26.9987H26.9973H26.9958H26.9943H26.9927H26.991H26.9892H26.9874H26.9855H26.9835H26.9815H26.9793H26.9771H26.9749H26.9725H26.9701H26.9676H26.9651H26.9625H26.9598H26.957H26.9542H26.9513H26.9483H26.9452H26.9421H26.939H26.9357H26.9324H26.929H26.9256H26.9221H26.9185H26.9149H26.9111H26.9074H26.9035H26.8996H26.8957H26.8916H26.8875H26.8834H26.8791H26.8749H26.8705H26.8661H26.8616H26.8571H26.8525H26.8479H26.8431H26.8384H26.8335H26.8286H26.8237H26.8187H26.8136H26.8085H26.8033H26.798H26.7927H26.7874H26.7819H26.7765H26.7709H26.7654H26.7597H26.754H26.7483H26.7425H26.7366H26.7307H26.7247H26.7187H26.7126H26.7065H26.7003H26.6941H26.6878H26.6814H26.675H26.6686H26.6621H26.6556H26.649H26.6423H26.6356H26.6289H26.6221H26.6153H26.6084H26.6014H26.5945H26.5874H26.5804H26.5732H26.5661H26.5588H26.5516H26.5443H26.5369H26.5295H26.5221H26.5146H26.5071H26.4995H26.4919H26.4842H26.4765H26.4688H26.461H26.4531H26.4453H26.4373H26.4294H26.4214H26.4134H26.4053H26.3972H26.389H26.3808H26.3726H26.3643H26.356H26.3477H26.3393H26.3308H26.3224H26.3139H26.3054H26.2968H26.2882H26.2795H26.2709H26.2621H26.2534H26.2446H26.2358H26.227H26.2181H26.2092H26.2002H26.1912H26.1822H26.1732H26.1641H26.155H26.1459H26.1367H26.1275H26.1183H26.109H26.0997H26.0904H26.0811H26.0717H26.0623H26.0529H26.0434H26.034H26.0244H26.0149H26.0053H25.9958H25.9861H25.9765H25.9668H25.9571H25.9474H25.9377H25.9279H25.9181H25.9083H25.8985H25.8887H25.8788H25.8689H25.859H25.849H25.8391H25.8291H25.8191H25.809H25.799H25.7889H25.7789H25.7688H25.7586H25.7485H25.7383H25.7282H25.718H25.7078H25.6975H25.6873H25.677H25.6668H25.6565H25.6462H25.6359H25.6255H25.6152H25.6048H25.5944H25.584H25.5736H25.5632H25.5528H25.5424H25.5319H25.5214H25.511H25.5005H25.49H25.4795H25.469H25.4584H25.4479H25.4373H25.4268H25.4162H25.4056H25.3951H25.3845H25.3739H25.3633H25.3527H25.3421H25.3314H25.3208H25.3102H25.2995H25.2889H25.2783H25.2676H25.257H25.2463H25.2356H25.225H25.2143H25.2036H25.193H25.1823H25.1716H25.1609H25.1503H25.1396H25.1289H25.1182H25.1075H25.0969H25.0862H25.0755H25.0648H25.0542H25.0435H25.0328H25.0222H25.0115H25.0009H24.9902H24.9796H24.9689H24.9583H24.9476H24.937H24.9264H24.9158H24.9051H24.8945H24.8839H24.8733H24.8628H24.8522H24.8416H24.8311H24.8205H24.81H24.7994H24.7889H24.7784H24.7679H24.7574H24.7469H24.7364H24.726H24.7155H24.7051H24.6947H24.6842H24.6738H24.6635H24.6531H24.6427H24.6324H24.622H24.6117H24.6014H24.5911H24.5809H24.5706H24.5604H24.5502H24.5399H24.5298H24.5196H24.5094H24.4993H24.4892H24.4791H24.469H24.459H24.4489H24.4389H24.4289H24.4189H24.409H24.399H24.3891H24.3792H24.3694H24.3595H24.3497H24.3399H24.3301H24.3203H24.3106H24.3009H24.2912H24.2816H24.2719H24.2623H24.2527H24.2432H24.2337H24.2241H24.2147H24.2052H24.1958H24.1864H24.177H24.1677H24.1584H24.1491H24.1399H24.1307H24.1215H24.1123H24.1032H24.0941H24.085H24.076H24.067H24.058H24.0491H24.0402H24.0313H24.0225H24.0136H24.0049H23.9961H23.9874H23.9788H23.9701H23.9615H23.953H23.9445H23.936H23.9275H23.9191H23.9107H23.9024H23.8941H23.8858H23.8776H23.8694H23.8613H23.8532H23.8451H23.8371H23.8291H23.8211H23.8132H23.8054H23.7976H23.7898H23.782H23.7743H23.7667H23.7591H23.7515H23.744H23.7365H23.7291H23.7217H23.7144H23.7071H23.6998H23.6926H23.6855H23.6783H23.6713H23.6643H23.6573H23.6504H23.6435H23.6367H23.6299H23.6232H23.6165H23.6098H23.6033H23.5967H23.5903H23.5838H23.5774H23.5711H23.5648H23.5586H23.5525H23.5463H23.5403H23.5343H23.5283H23.5224H23.5166H23.5108H23.505H23.4993H23.4937H23.4881H23.4826H23.4772H23.4718H23.4664H23.4611H23.4559H23.4507H23.4456H23.4405H23.4355H23.4306H23.4257H23.4209H23.4161H23.4114H23.4068H23.4022H23.3977H23.3932H23.3889H23.3845H23.3803H23.376H23.3719H23.3678H23.3638H23.3599H23.356H23.3521H23.3484H23.3447H23.3411H23.3375H23.334H23.3306H23.3272H23.3239H23.3207H23.3175H23.3144H23.3114H23.3085H23.3056H23.3028H23.3H23.2973H23.2947H23.2922H23.2897H23.2873H23.285H23.2828H23.2806H23.2785H23.2764H23.2745H23.2726H23.2708H23.269H23.2674H23.2658H23.2642H23.2628H23.2614H23.2601H23.2589H23.2578H23.2567H23.2557H23.2548H23.254H23.2532H23.2526H23.252H23.2514H23.251H23.2506H23.2504H23.2502H23.25L23.25 28M28 23.25L28.3454 22.8885L28.3452 22.8883L28.3443 22.8874L28.3407 22.884L28.3265 22.8704L28.2707 22.8171L28.056 22.6117C27.8695 22.4331 27.5993 22.1745 27.2652 21.8541C26.5968 21.2134 25.6721 20.3258 24.6471 19.3384C22.5962 17.3629 20.1463 14.9904 18.5424 13.3955C17.9794 12.8356 17.9956 12.1452 18.0268 11.495C18.0295 11.4375 18.0306 11.3816 18.0314 11.336C18.0315 11.329 18.0316 11.3222 18.0318 11.3157C18.0328 11.2628 18.0339 11.2268 18.0363 11.1969C18.2525 8.51236 17.5685 6.08806 16.1159 4.3265C14.6578 2.55824 12.4588 1.5 9.74058 1.5C4.62966 1.5 1.5 5.7467 1.5 9.50615C1.5 11.3213 1.8845 13.6307 3.26454 15.4703C4.66572 17.3381 7.03402 18.6431 10.8236 18.532C11.0017 18.5317 11.1858 18.5233 11.3612 18.5152L11.3672 18.5149C11.5434 18.5068 11.7266 18.4878 11.8956 18.4702C11.9247 18.4672 11.9533 18.4642 11.9815 18.4614C12.181 18.441 12.3642 18.4248 12.5404 18.4238C12.8896 18.4218 13.1627 18.4806 13.3909 18.6508C13.4804 18.7175 13.7868 19.0066 14.2478 19.4494C14.3288 19.5272 14.4134 19.6086 14.5011 19.6929C14.8921 20.069 15.3424 20.5022 15.7885 20.921C15.9915 21.1116 16.2494 21.1553 16.4714 21.1435C16.6907 21.1318 16.9308 21.0647 17.1833 20.9652C17.4024 20.8788 17.5519 20.8461 17.6559 20.8466C17.7375 20.847 17.7891 20.8665 17.844 20.9176C17.8462 20.9243 17.8517 20.9464 17.8499 20.9915C17.8459 21.0907 17.8098 21.2396 17.7271 21.4417C17.6234 21.6952 17.5332 21.9876 17.5189 22.2754C17.5044 22.5663 17.5669 22.9158 17.8456 23.1804L17.8458 23.1806C17.9844 23.3123 18.234 23.5493 18.6341 23.6093C19.0273 23.6682 19.461 23.5443 19.9689 23.2508C20.1182 23.1645 20.2252 23.1589 20.2853 23.1657C20.3191 23.1695 20.3419 23.1775 20.3543 23.1828C20.3563 23.1913 20.3583 23.2048 20.3589 23.2252C20.3608 23.3003 20.3398 23.4411 20.2432 23.664C20.1967 23.7712 20.144 23.8712 20.0871 23.9767C20.0813 23.9873 20.0754 23.9982 20.0694 24.0093C20.0201 24.1003 19.9627 24.2063 19.9179 24.3081C19.8672 24.4232 19.8126 24.5756 19.8068 24.749C19.8005 24.9386 19.8533 25.1235 19.9716 25.2898C20.0516 25.4023 20.2911 25.6609 20.5559 25.9411C20.8375 26.239 21.1914 26.6063 21.5372 26.9627C21.8832 27.3194 22.2223 27.6664 22.4748 27.9241C22.6011 28.053 22.7058 28.1597 22.7789 28.2341L22.8637 28.3203L22.8861 28.343L22.8918 28.3488L22.8933 28.3503L22.8936 28.3507L22.8937 28.3508L23.25 28M23.25 28V28.5C23.1161 28.5 22.9877 28.4463 22.8938 28.3508L23.25 28ZM20.3499 23.1706C20.35 23.1704 20.3507 23.1714 20.3517 23.1739C20.3503 23.1719 20.3498 23.1707 20.3499 23.1706ZM9.24058 7.5C9.24058 8.4147 8.49413 9.16099 7.56741 9.16099C6.64068 9.16099 5.89423 8.41469 5.89423 7.5C5.89423 6.58531 6.64068 5.83901 7.56741 5.83901C8.49413 5.83901 9.24058 6.5853 9.24058 7.5Z" stroke="currentColor" stroke-linecap="round" stroke-linejoin="round"/></svg>

<svg xmlns="http://www.w3.org/2000/svg" fill="none" viewBox="0 0 32 32" width="1em" height="1em"><path stroke="currentColor" stroke-linecap="round" stroke-linejoin="round" d="M28 23.25h.5a.5.5 0 0 0-.154-.361L28 23.25Zm0 0h.5V27c0 .413-.201.783-.459 1.041-.258.258-.628.459-1.041.459h-3.739 0-.007 0-.002 0-.001 0-.001V28M28 23.25l.345-.361h0v-.002l-.004-.003-.015-.014-.055-.053-.215-.205-.79-.758c-.67-.64-1.594-1.528-2.619-2.516-2.05-1.975-4.5-4.348-6.105-5.943-.563-.56-.546-1.25-.515-1.9a5.407 5.407 0 0 0 .005-.18c0-.052.002-.088.004-.118.216-2.685-.468-5.109-1.92-6.87C14.658 2.558 12.459 1.5 9.74 1.5 4.63 1.5 1.5 5.747 1.5 9.506c0 1.815.385 4.125 1.765 5.964 1.4 1.868 3.769 3.173 7.559 3.062.178 0 .362-.009.537-.017h.006a8.9 8.9 0 0 0 .529-.045l.085-.009c.2-.02.383-.036.56-.037.349-.002.622.057.85.227.09.067.396.356.857.798l.253.244c.391.376.841.81 1.288 1.228.203.19.46.234.682.223.22-.012.46-.08.712-.179.22-.086.369-.119.473-.118.082 0 .133.02.188.07a.224.224 0 0 1 .006.074c-.004.1-.04.249-.123.45a2.607 2.607 0 0 0-.208.834c-.015.291.048.64.327.905h0c.138.132.388.37.788.43.393.058.827-.066 1.335-.36a.516.516 0 0 1 .316-.084.245.245 0 0 1 .07.017.218.218 0 0 1 .004.042c.002.075-.02.216-.116.439a4.047 4.047 0 0 1-.174.345 4.193 4.193 0 0 0-.151.3c-.05.114-.105.267-.111.44a.869.869 0 0 0 .165.54c.08.113.32.372.584.652.281.298.635.665.981 1.022a273.78 273.78 0 0 0 1.242 1.271l.085.086.022.023.006.006.001.001h0l.357-.35m0 0v.5a.5.5 0 0 1-.356-.15l.356-.35Zm-2.9-4.83.002.004-.002-.003ZM9.24 7.5c0 .915-.746 1.661-1.673 1.661A1.667 1.667 0 0 1 5.894 7.5c0-.915.747-1.661 1.673-1.661.927 0 1.674.746 1.674 1.661Z"/></svg>
